X: 1
T: Miss Audrey Hinchcliffe's Strathspey
C: Jimmy Shand Sr
R: strathspey
B: Newcastle Collection p.16 #2
Z: 2011 John Chambers <jc:trillian.mit.edu>
M: C
L: 1/8
K: D
A |\
"D"d2 c>d "G"(3Bcd "D/F#"A>F | "Em"G<E E>F "A7"G<E E> A |\
"D"d2 c>d "G"(3Bcd "D/F#"A>F | "Em"(3GAB "A7"A>G "D"F<D "A7"A> ||
A |\
"D"d2 c>d "G"(3Bcd "D/F#"A>F | "Em"G<E E>F "A7"G<E E>A |\
"D"d2 "F#m"c>d "G"(3Bcd "B7"A>F | "Em"(3GAB "A7"A>G "D"F<D "A7"D> |]
G |\
"D"F<D D>G "D/F#"F>D A>F | "Em"G<E E>F "A7/C#"G<E E>G |\
"D"F<D D>G "Bm"F>D "F#m"A>F | "Em"(3EFG "F#7"F>E "Bm"D<B, B,> ||
g |\
"F"f>d d>g "D/F#"f>d a>f | "Em"g<e e>f "A7/C#"g<e e>g |\
"D"f<d "G/B"d>g "D/A"f>d "D#dim"a>f | "Em"(3EFG "A7"(3ABc "D"d2 D |]
